X: 1
T: Lament For Ian Dickson
M: 3/4
L: 1/8
R: waltz
K: Gmaj
D2|:G4 F2|G3 A B2|c4 B2|A6 |d3 c BA|c3 B AG|G2 B2 d2|A4 D2|
G4  F2|G3 A B2|c4  B2|A6  |d3 c BA|c3 B AG|D2 d2 F2|1 G4  D2:|2 G4 d2||
|:e3 f g2|f2 d2 ag|f2 d2  B2|d6 |e3 f g2|f2 d2  B2|e3  c  ec|A4 d2|
e3 f g2|f2 d2 ag|f3 d B2|d6  |e3 c BA|d3 B AG|D2 d2 F2|1 G4 d2:|2 G6||
